svg/black/grin.svg

<?xml version="1.0" encoding="UTF-8"?>
<svg width="32px" height="32px" viewBox="0 0 32 32" version="1.1" xmlns="http://www.w3.org/2000/svg" xmlns:xlink="http://www.w3.org/1999/xlink">
    <!-- Generator: Sketch 53 (72520) - https://sketchapp.com -->
    <title>svg/black/grin</title>
    <desc>Created with Sketch.</desc>
    <g id="black/grin" stroke="none" stroke-width="1" fill="none" fill-rule="evenodd">
        <path d="M16,32 C7.163444,32 0,24.836556 0,16 C0,7.163444 7.163444,0 16,0 C24.836556,0 32,7.163444 32,16 C32,24.836556 24.836556,32 16,32 Z M22.6399899,9.56793554 C22.3008957,8.80672409 21.9849747,7.30280634 21.1153998,6.96838011 C19.9959221,6.5379272 19.3038966,9.35604335 19.1390174,10.0680745 L18.9723045,10.0680745 C18.6900594,8.84806891 18.3112875,7.11892192 16.9717488,6.73381495 C16.3515765,9.33853848 17.6195954,12.1484857 18.8055915,14.4026118 C20.0719433,13.7974437 20.688948,11.9022506 20.8061472,10.5682134 L20.9728602,10.5682134 L22.306564,14.5693248 C23.3795287,14.2609058 23.7527991,13.1991109 24.14024,12.2353432 C24.971971,10.1667685 25.6698316,7.62272854 25.1406846,5.40011114 C23.5394064,5.85357044 23.0522711,8.14337316 22.6399899,9.56793554 Z M6.63554426,14.9027508 C8.06844229,14.2185607 8.75029836,12.0529592 8.96952592,10.5682134 L9.1362389,10.5682134 C9.305786,11.2839122 9.75907858,13.1302584 10.653327,13.2487913 C11.7926435,13.3994999 12.389976,10.8714643 12.4704984,10.0680745 L12.6372114,10.0680745 C13.000479,11.3232565 13.383252,12.9555432 14.6377671,13.569047 C15.1005623,11.6251737 14.5464084,9.5520978 13.8355443,7.7340928 C13.6528268,7.26662962 13.2775559,6.00627952 12.6330436,6.00627952 C11.5770836,6.00627952 10.9834187,8.78971937 10.8033687,9.56793554 L10.6366557,9.56793554 L9.30295188,5.56682412 C6.95696688,6.68713532 5.68261289,12.6442901 6.63554426,14.9027508 Z M4.13484962,16.9033065 C5.87583323,24.4972492 13.9062306,28.8022784 21.1395732,25.5953876 C23.7721378,24.4282301 25.8603845,22.3486524 27.0643856,19.7374271 C27.375472,19.0627396 27.9864751,17.8415671 27.6302094,16.9563212 C27.2754442,16.0745763 23.8346551,17.5153098 22.9749163,17.891581 C22.8542161,17.9452626 22.7690258,18.0566268 22.7491869,18.1873298 C22.7210124,18.3722145 22.7710263,18.5606002 22.8875587,18.7071409 C23.0039244,18.8536816 23.1761389,18.9450403 23.3626907,18.9593776 C23.9930325,19.0078911 24.8072586,19.0705752 24.8072586,19.0705752 C22.1920322,24.1328147 15.121068,26.3711031 10.1365168,22.326813 C9.02087352,21.4217283 8.02559705,20.3462629 7.35574432,19.0705752 C7.03182101,18.4537371 6.73140422,17.6648513 6.18075126,17.2415671 C5.65177099,16.8347874 4.84921473,16.6954154 4.13484962,16.9033065 Z" id="Combined-Shape" fill="#000000" fill-rule="nonzero"></path>
    </g>
</svg>

<svg width="32" height="32" viewBox="0 0 32 32" xmlns="http://www.w3.org/2000/svg"><path d="M16 32C7.163 32 0 24.837 0 16S7.163 0 16 0s16 7.163 16 16-7.163 16-16 16zm6.64-22.432c-.34-.761-.655-2.265-1.525-2.6-1.12-.43-1.811 2.388-1.976 3.1h-.167c-.282-1.22-.66-2.95-2-3.334-.62 2.605.648 5.414 1.834 7.669 1.266-.606 1.883-2.5 2-3.835h.167l1.334 4.001c1.073-.308 1.446-1.37 1.833-2.334.832-2.068 1.53-4.612 1-6.835-1.6.454-2.088 2.743-2.5 4.168zM6.636 14.903c1.432-.684 2.114-2.85 2.334-4.335h.166c.17.716.623 2.562 1.517 2.68 1.14.151 1.737-2.377 1.817-3.18h.167c.363 1.255.746 2.888 2 3.501.464-1.944-.09-4.017-.801-5.835-.183-.467-.558-1.728-1.203-1.728-1.056 0-1.65 2.784-1.83 3.562h-.166L9.303 5.567c-2.346 1.12-3.62 7.077-2.667 9.336zm-2.501 2c1.74 7.594 9.771 11.9 17.005 8.692a11.773 11.773 0 0 0 5.924-5.858c.311-.674.922-1.895.566-2.78-.355-.882-3.795.558-4.655.935a.387.387 0 0 0-.226.295.672.672 0 0 0 .614.772l1.444.112c-2.615 5.062-9.686 7.3-14.67 3.256-1.116-.905-2.111-1.98-2.781-3.256-.324-.617-.625-1.406-1.175-1.83-.53-.406-1.332-.546-2.046-.338z"/></svg>
